vendor/shopware/storefront/Resources/app/storefront/dist/assets/icon/default/map-open.svg

<svg xmlns="http://www.w3.org/2000/svg" width="24" height="24" viewBox="0 0 24 24">
  <path fill="#758CA3" fill-rule="evenodd" d="M21.1678791,10 L21.6678791,10 C22.7724486,10 23.6678791,10.8954305 23.6678791,12 C23.6678791,12.264052 23.6155914,12.5254904 23.514033,12.7692308 L20.1806996,20.7692308 C19.8701605,21.5145246 19.1419475,22 18.3345458,22 L17.0195324,22 L4.36866434,22 C2.83338855,22 1.545868,20.8408945 1.38514798,19.3140544 L0.0167269319,6.31405435 C-0.156720498,4.66630377 1.03843835,3.18993107 2.68618894,3.01648364 C2.79051353,3.0055021 2.89534231,3 3.00024329,3 L8.94711989,3 C9.37755029,3 9.75968914,3.27543009 9.89580318,3.68377223 L10.6678791,6 L19.4023147,6 C20.5068842,6 21.4023147,6.8954305 21.4023147,8 C21.4023147,8.08293005 21.3971566,8.16577982 21.3868704,8.24806947 L21.1678791,10 Z M19.1523147,10 L19.4023147,8 L9.22636067,8 L8.22636067,5 L3.00024329,5 C2.9652763,5 2.93033337,5.00183403 2.89555851,5.00549455 C2.34630831,5.06331036 1.94792203,5.55543459 2.00573784,6.10468478 L3.27333904,18.1468962 L6.15505859,11.2307692 C6.46559771,10.4854754 7.19381074,10 8.00121244,10 L19.1523147,10 Z M8.00121244,12 L4.66787911,20 L18.3345458,20 L21.6678791,12 L8.00121244,12 Z"/>
</svg>

<svg xmlns="http://www.w3.org/2000/svg" width="24" height="24" viewBox="0 0 24 24"><path fill="#758CA3" fill-rule="evenodd" d="M21.1679 10h.5c1.1045 0 2 .8954 2 2a2 2 0 0 1-.1539.7692l-3.3333 8A2 2 0 0 1 18.3345 22H4.3687c-1.5353 0-2.8228-1.1591-2.9836-2.686l-1.3684-13C-.1567 4.6664 1.0384 3.19 2.6862 3.0166A3 3 0 0 1 3.0002 3h5.947a1 1 0 0 1 .9486.6838L10.6678 6h8.7345c1.1046 0 2 .8954 2 2a2 2 0 0 1-.0154.248L21.1679 10zm-2.0156 0 .25-2H9.2263l-1-3h-5.226a1 1 0 0 0-.1047.0055c-.5493.0578-.9477.55-.8899 1.0992l1.2676 12.0422 2.8818-6.9161A2 2 0 0 1 8.0012 10h11.1511zm-11.151 2-3.3334 8h13.6666l3.3334-8H8.0012z"/></svg>
